X:430
%%etbk:tnset id:130,pos:2,rep:3x,ant:
%%etbk:wsite http://www.thesession.org/tunes/display/4577
%%etbk:pldat 2016-09-10T14:37,2016-09-09T18:13,2016-02-10T16:53,2016-01-23T15:14,2016-01-20T15:53,2016-01-19T17:07,2016-01-17T11:46,2015-01-27T17:09,2015-01-06T19:20,2014-12-29T17:47,2014-12-28T15:11,2014-12-03T18:01,2014-12-02T18:06,2014-09-09T18:54,2014-02-07T16:48,2014-02-04T18:14,2013-05-22T17:58,2013-05-10T15:45,2013-05-09T15:29,2013-05-01T16:49
T: Gypsy Princess
Z: Piano Box Version by Martin Fleischmann
H: Created 2013-02-19 /  Last Modified 2013-02-19
M: 4/4
L: 1/8
R: barndance
K: Gmaj
|: "G"!3!(B2 B)B B2BB | !2!ABA!1!G !2!EE !1!DE | !1!(G2G)!3!B !4!dd !3!B!4!d | !5!e!3!B !4!d!3!B "D"!2!A2 GA |
"G"!3!([B2G] [BG])B B2[BG]B | !2!ABA!1!G !2!EE !1!DE | !1!(G2G)!3!B !4!d!5!e!4!d!3!B | "D"!2!A2 !1!G2 "G"G2 z2:|
|: "G"!5!(d2 d)d d2 dd | !2!AB BA !1!GA !3!B!4!d | "C"!5!(e2e)e e2 ee | "G"!2!AB BA !1!GA !3!B!4!c |
!5!(d2 d)d d2 dd | !2!AB BA !1!GA !3!B!1!d | !4!(g2 g)!2!e !1!d!3!B !2!A!5!d | "D"!3!B2 A2 "G"G2 z2:|


